svg/building/house_2_fill.svg

<svg xmlns="http://www.w3.org/2000/svg" width="24" height="24" viewBox="0 0 24 24"><g fill="none" fill-rule="evenodd"><path d="M24,0 L24,24 L0,24 L0,0 L24,0 Z M12.5935,23.2578 L12.5819,23.2595 L12.5109,23.295 L12.4919,23.2987 L12.4767,23.295 L12.4057,23.2595 C12.3958,23.2564 12.387,23.259 12.3821,23.2649 L12.378,23.2758 L12.3609,23.7031 L12.3659,23.7235 L12.3769,23.7357 L12.4805,23.8097 L12.4953,23.8136 L12.5071,23.8097 L12.6107,23.7357 L12.6233,23.7197 L12.6267,23.7031 L12.6096,23.2758 C12.6076,23.2657 12.601,23.2593 12.5935,23.2578 Z M12.8584,23.1453 L12.8445,23.1473 L12.6598,23.2397 L12.6499,23.2499 L12.6472,23.2611 L12.6651,23.6906 L12.6699,23.7034 L12.6784,23.7105 L12.8793,23.8032 C12.8914,23.8069 12.9022,23.803 12.9078,23.7952 L12.9118,23.7812 L12.8777,23.1665 C12.8753,23.1546 12.8674,23.147 12.8584,23.1453 Z M12.143,23.1473 C12.1332,23.1424 12.1222,23.1453 12.1156,23.1526 L12.1099,23.1665 L12.0758,23.7812 C12.0751,23.7927 12.0828,23.8019 12.0926,23.8046 L12.1083,23.8032 L12.3092,23.7105 L12.3186,23.7024 L12.3225,23.6906 L12.3404,23.2611 L12.3372,23.2485 L12.3278,23.2397 L12.143,23.1473 Z"/><path fill="#09244B" d="M13.3511,3.0637 L21.3511,6.0637 C21.8683,6.25762 22.1303,6.83403 21.9363,7.35115 C21.7858,7.75255 21.4048,8.00024 21,8.0003 L21,19 C21,20.1046 20.1046,21 19,21 L10,21 L10,16 C10,15.4477 9.55228,15 9,15 C8.44772,15 8,15.4477 8,16 L8,21 L5.00001,21 C3.89544,21 3.00001,20.1046 3.00001,19 L3.00001,13.0003 C2.55997,13.0005 2.15659,12.7081 2.03524,12.2631 C1.88993,11.7303 2.20406,11.1806 2.73689,11.0353 L13,8.23623 L13,5.06803 L12.6489,4.93636 C12.1318,4.74244 11.8698,4.16602 12.0637,3.6489 C12.2576,3.13178 12.834,2.86978 13.3511,3.0637 Z M17.5,14 L16.5,14 C15.9477,14 15.5,14.4477 15.5,15 C15.5,15.5523 15.9477,16 16.5,16 L17.5,16 C18.0523,16 18.5,15.5523 18.5,15 C18.5,14.4477 18.0523,14 17.5,14 Z M17.5,10 L16.5,10 C15.9477,10 15.5,10.4477 15.5,11 C15.5,11.51285 15.886027,11.9355092 16.3833761,11.9932725 L16.5,12 L17.5,12 C18.0523,12 18.5,11.5523 18.5,11 C18.5,10.48715 18.113973,10.0644908 17.6166239,10.0067275 L17.5,10 Z"/></g></svg>

<svg xmlns="http://www.w3.org/2000/svg" width="24" height="24"><g fill="none" fill-rule="evenodd"><path d="M24 0v24H0V0zM12.594 23.258l-.012.002-.071.035-.02.004-.014-.004-.071-.036c-.01-.003-.019 0-.024.006l-.004.01-.017.428.005.02.01.013.104.074.015.004.012-.004.104-.074.012-.016.004-.017-.017-.427c-.002-.01-.009-.017-.016-.018m.264-.113-.014.002-.184.093-.01.01-.003.011.018.43.005.012.008.008.201.092c.012.004.023 0 .029-.008l.004-.014-.034-.614c-.003-.012-.01-.02-.02-.022m-.715.002a.023.023 0 0 0-.027.006l-.006.014-.034.614c0 .012.007.02.017.024l.015-.002.201-.093.01-.008.003-.011.018-.43-.003-.012-.01-.01z"/><path fill="#09244B" d="m13.351 3.064 8 3A1 1 0 0 1 21 8v11a2 2 0 0 1-2 2h-9v-5a1 1 0 1 0-2 0v5H5a2 2 0 0 1-2-2v-6a1 1 0 0 1-.263-1.965L13 8.236V5.068l-.351-.132a1 1 0 0 1 .702-1.872M17.5 14h-1a1 1 0 1 0 0 2h1a1 1 0 1 0 0-2m0-4h-1a1 1 0 0 0-.117 1.993L16.5 12h1a1 1 0 0 0 .117-1.993z"/></g></svg>
